docs/src/static/design_tokens_icon.svg

<svg height="90" viewBox="0 0 90 90" width="90" xmlns="http://www.w3.org/2000/svg"><g fill="#fff" transform="translate(0 6)"><path d="m22.5839572.19215506-22.29763973 38.43344854 22.13575513 38.528536 44.4333949.0919442 22.2984256-38.4334485-22.1349693-38.52696438-44.1001955-.09351586zm2.1005707 73.06025124-19.88823106-34.6181584 20.03439866-34.53328689 39.9257731.08408569 19.888231 34.6181584-20.0351845 34.5332869z"/><path d="m37.936957 39.2939929-4.1819648-11.9992504-4.3455439 11.9992504zm-6.1014307-16.0293696h4.1536663l9.8575378 27.1596493h-4.0301193l-2.836061-8.1340907h-10.6554171l-2.9458039 8.1340907h-3.7719818z"/><path d="m30.108076 38.8046361h7.1395022l-3.5007304-10.0473447zm8.5171555.9794038h-9.9141347l5.0530061-13.951156zm3.5386918 10.1508758h2.9844555l-9.5020811-26.1802454h-3.4710515l-9.8596084 26.1802454h2.7207964l2.9458039-8.1340906h11.3456243zm4.3807445.9800941h-5.075783l-2.8367512-8.135471h-9.9638297l-2.9458038 8.135471h-4.822477l10.5967495-28.1397433h4.8362812z"/><g transform="translate(48.487049 29.074373)"><path d="m5.14466566 18.3571621c.70401124.5542363 1.53571079.8303191 2.49647907.8303191 1.17059124 0 2.30529171-.2712514 3.40272097-.8130639 1.8483746-.8979595 2.7725619-2.3687908 2.7725619-4.4111136v-2.6773133c-.4051515.260208-.9283285.4755527-1.5681505.6494848-.6391318.1725518-1.2658398.2967891-1.882885.3692608l-2.01126344.2588277c-1.20441138.1601281-2.1106533.4127439-2.71803555.7578474-1.02978898.5770131-1.54330306 1.5005102-1.54330306 2.76635-.00069021.9607683.34924479 1.7165451 1.05187561 2.269401zm7.00836284-8.99063767c.7626789-.0980094 1.2755027-.41757529 1.5343304-.95938786.1483945-.29747926.2208663-.72402725.2208663-1.28033417 0-1.1381515-.403081-1.9643294-1.2078624-2.47853368-.8061619-.51282388-1.959498-.76958092-3.45931802-.76958092-1.73518064 0-2.96581989.47072124-3.69122755 1.41216372-.40584178.52041616-.67019109 1.29482852-.79373816 2.32254689h-3.10593194c.06211864-2.44747437.85309597-4.15021528 2.37362221-5.10822273 1.51914582-.95800745 3.28400536-1.43701118 5.28974719-1.43701118 2.32668817 0 4.21578497.44449337 5.67005127 1.33140949 1.4411525.88760633 2.1610385 2.26802053 2.1610385 4.14193279v11.40912332c0 .3451036.0704011.6211864.2112033.8316996.1414925.2091327.4417326.3126638.8972693.3126638.1483945 0 .3154246-.0096629.5004001-.0269181.1842853-.0186356.3816845-.0455537.5915075-.0835151v2.4585177c-.5176553.1483945-.9124538.2401921-1.1843954.2774633-.2705612.0365809-.639822.0552165-1.1084726.0552165-1.1457438 0-1.9788237-.4072222-2.4964791-1.2202861-.2712514-.4313794-.4610583-1.0422127-.5728719-1.8304292-.6764029.8882965-1.6516655 1.6578774-2.9209564 2.3121937-1.26929085.6522457-2.66765042.9787137-4.19645915.9787137-1.83733129 0-3.3364611-.5569971-4.50084048-1.6716816-1.16575978-1.113304-1.74898478-2.5075224-1.74898478-4.1819648 0-1.8345705.5735621-3.2557069 1.72068629-4.2654798 1.14574378-1.009773 2.65039526-1.6309594 4.51050338-1.86632z"/><path d="m13.3274159 12.0873898c-.2871262.1200961-.6053116.2277684-.9517956.3209463-.6577673.1794539-1.3134641.3071422-1.9505252.3844454l-2.00643207.2574472c-1.13608089.1511554-1.99193769.3858258-2.54203274.6971092-.87242177.4907372-1.29551872 1.2561769-1.29551872 2.3418727 0 .8089227.28298491 1.4245874.86690011 1.8842654.61980597.4879764 1.33762135.7254076 2.19416836.7254076 1.0891468 0 2.16103842-.2574472 3.18461556-.7619886 1.6834151-.8185856 2.5006203-2.1175554 2.5006203-3.9728321zm-5.68592606 7.5895173c-1.07120142 0-2.01126349-.3140443-2.79947999-.9345404-.82272686-.6494849-1.24168257-1.5419227-1.24168257-2.6545365 0-1.4508154.60393121-2.5247776 1.79522866-3.1935883.66743026-.3789237 1.61508461-.6460338 2.89334815-.8158248l2.01402431-.2588276c.5935781-.0704011 1.2037212-.1911874 1.8159349-.3575273.590127-.1587476 1.0712014-.3575273 1.4328699-.5894369l.7537062-.4810743v3.5711315c0 2.236271-1.0249576 3.8686108-3.049335 4.8514657-1.1560969.5728719-2.372932.8627589-3.61461456.8627589zm1.59990005-16.28819731c1.58885671 0 2.84020221.28505553 3.72297711.84757431.9517956.60738225 1.4356307 1.57988405 1.4356307 2.89058732 0 .63844157-.0890367 1.12848861-.273322 1.4977494-.3306092.69296793-.9745724 1.10709219-1.9111834 1.22787843l-5.30907302.66397925c-1.75243582.2208662-3.18254493.8089227-4.24753448 1.7469141-1.04635396.9207363-1.55434638 2.196239-1.55434638 3.8982897 0 1.5488248.52386718 2.8015506 1.59713922 3.8285788 1.0794839 1.0325498 2.44195271 1.5357108 4.16332921 1.5357108 1.44253283 0 2.77739336-.3112834 3.97283205-.9248775 1.1995799-.6177354 2.1258379-1.3479745 2.7566871-2.172772l.7095329-.9317795.1628889 1.1609283c.1014605.7157447.269871 1.2658398.5038512 1.6378614.4224067.6660499 1.1050216.9911374 2.0809744.9911374.4451836 0 .7958088-.0172552 1.0435931-.0510753.1842853-.0255377.4382815-.0807542.759918-.1656497v-1.5205262c-.0179453.0013804-.0358907.0041412-.0524557.0055216-.2008503.020016-.3851356.0296789-.5487146.0296789-.6260179 0-1.0636092-.1780734-1.3017306-.5286986-.1960188-.289887-.2981695-.6619086-.2981695-1.1057118v-11.4091233c0-1.70757236-.6294689-2.92578789-1.9277484-3.7243575-1.3652296-.83515059-3.1866862-1.25824754-5.41191386-1.25824754-1.90359117 0-3.59528877.45760731-5.03022933 1.36177861-1.28033416.8075423-1.97744333 2.18519567-2.1203162 4.20405143h2.1686307c.15322598-.9138342.42861861-1.61508461.83307997-2.13412035.8172052-1.06153851 2.1886467-1.60128046 4.07567291-1.60128046zm-2.37638304 19.11666601c-1.95742733 0-3.58769649-.6080725-4.84180279-1.806272-1.25824753-1.2051016-1.89806951-2.7311495-1.89806951-4.5360411 0-1.9719216.63499053-3.5304093 1.88564579-4.6333602 1.2161449-1.0705112 2.82156661-1.73794147 4.77416249-1.9836552l5.30631217-.66466944c.5915075-.07592278.9690508-.30093029 1.1547165-.68537564.0786836-.16219867.1725517-.47486249.1725517-1.0691308 0-.96836055-.3216365-1.6440733-.9835451-2.06509963-.7212664-.46036813-1.796609-.69365813-3.19496863-.69365813-1.5660799 0-2.67869374.41136343-3.30264096 1.22235677-.3506252.4479444-.5839152 1.14850461-.69572875 2.0816646l-.05107533.43137944h-4.04254297l.01242373-.50247077c.06695009-2.60967304.94075228-4.46425951 2.60277097-5.50923305 1.59161756-1.00356112 3.46000817-1.51224375 5.55133568-1.51224375 2.40744236 0 4.40076046.47210165 5.92473776 1.40250082 1.5888567.97940387 2.3950186 2.51373425 2.3950186 4.55950809v11.40912329c0 .2443333.043483.4313795.1290687.5556167.016565.0269181.1456337.1000801.4907373.1000801.1311393 0 .2829849-.0082825.4507052-.0255377.1739322-.0172552.3602881-.0427928.5549265-.0779934l.5756327-.1007702v3.4116936l-.356837.1007703c-.5445734.156677-.9545565.2519256-1.2499651.2926478-.2954086.0393418-.6812344.0593578-1.1761129.0593578-1.319676 0-2.2983896-.486596-2.9085327-1.4466741-.1829049-.2885065-.329919-.6322297-.4444934-1.0394519-.6453436.6322297-1.4535761 1.1981996-2.4143444 1.693078-1.33348011.6839953-2.8201862 1.0318597-4.42008625 1.0318597z"/></g></g></svg>

<?xml version="1.0" encoding="UTF-8"?>
<svg width="90px" height="90px" viewBox="0 0 90 90" version="1.1" xmlns="http://www.w3.org/2000/svg" xmlns:xlink="http://www.w3.org/1999/xlink">
    <!-- Generator: Sketch 48.2 (47327) - http://www.bohemiancoding.com/sketch -->
    <title>design_tokens_icon</title>
    <desc>Created with Sketch.</desc>
    <defs></defs>
    <g id="Page-1" stroke="none" stroke-width="1" fill="none" fill-rule="evenodd">
        <g id="design_tokens_icon" fill="#FFFFFF" fill-rule="nonzero">
            <g transform="translate(0.000000, 6.000000)">
                <path d="M22.5839572,0.192155057 L0.28631747,38.6256036 L22.4220726,77.1541396 L66.8554675,77.2460838 L89.1538931,38.8126353 L67.0189238,0.285670921 L22.9187283,0.192155057 L22.5839572,0.192155057 Z M24.6845279,73.2524063 L4.79629684,38.6342479 L24.8306955,4.10096101 L64.7564686,4.1850467 L84.6446996,38.8032051 L64.6095151,73.336492 L24.6845279,73.2524063 Z" id="Fill-1"></path>
                <path d="M37.936957,39.2939929 L33.7549922,27.2947425 L29.4094483,39.2939929 L37.936957,39.2939929 Z M31.8355263,23.2646233 L35.9891926,23.2646233 L45.8467304,50.4242726 L41.8166111,50.4242726 L38.9805501,42.2901819 L28.325133,42.2901819 L25.3793291,50.4242726 L21.6073473,50.4242726 L31.8355263,23.2646233 Z" id="Fill-2"></path>
                <path d="M30.108076,38.8046361 L37.2475782,38.8046361 L33.7468478,28.7572914 L30.108076,38.8046361 Z M38.6252315,39.7840399 L28.7110968,39.7840399 L33.7641029,25.8328839 L38.6252315,39.7840399 Z M42.1639233,49.9349157 L45.1483788,49.9349157 L35.6462977,23.7546703 L32.1752462,23.7546703 L22.3156378,49.9349157 L25.0364342,49.9349157 L27.9822381,41.8008251 L39.3278624,41.8008251 L42.1639233,49.9349157 Z M46.5446678,50.9150098 L41.4688848,50.9150098 L38.6321336,42.7795388 L28.6683039,42.7795388 L25.7225001,50.9150098 L20.9000231,50.9150098 L31.4967726,22.7752665 L36.3330538,22.7752665 L46.5446678,50.9150098 Z" id="Fill-3"></path>
                <g id="Group-8" transform="translate(48.487049, 29.074373)">
                    <path d="M5.14466566,18.3571621 C5.8486769,18.9113984 6.68037645,19.1874812 7.64114473,19.1874812 C8.81173597,19.1874812 9.94643644,18.9162298 11.0438657,18.3744173 C12.8922403,17.4764578 13.8164276,16.0056265 13.8164276,13.9633037 L13.8164276,11.2859904 C13.4112761,11.5461984 12.8880991,11.7615431 12.2482771,11.9354752 C11.6091453,12.108027 10.9824373,12.2322643 10.3653921,12.304736 L8.35412866,12.5635637 C7.14971728,12.7236918 6.24347536,12.9763076 5.63609311,13.3214111 C4.60630413,13.8984242 4.09279005,14.8219213 4.09279005,16.0877611 C4.09209984,17.0485294 4.44203484,17.8043062 5.14466566,18.3571621 Z M12.1530285,9.36652443 C12.9157074,9.26851503 13.4285312,8.94894914 13.6873589,8.40713657 C13.8357534,8.10965731 13.9082252,7.68310932 13.9082252,7.1268024 C13.9082252,5.9886509 13.5051442,5.162473 12.7003628,4.64826872 C11.8942009,4.13544484 10.7408648,3.8786878 9.24104478,3.8786878 C7.50586414,3.8786878 6.27522489,4.34940904 5.54981723,5.29085152 C5.14397545,5.81126768 4.87962614,6.58568004 4.75607907,7.61339841 L1.65014713,7.61339841 C1.71226577,5.16592404 2.5032431,3.46318313 4.02376934,2.50517568 C5.54291516,1.54716823 7.3077747,1.0681645 9.31351653,1.0681645 C11.6402047,1.0681645 13.5293015,1.51265787 14.9835678,2.39957399 C16.4247203,3.28718032 17.1446063,4.66759452 17.1446063,6.54150678 L17.1446063,17.9506301 C17.1446063,18.2957337 17.2150074,18.5718165 17.3558096,18.7823297 C17.4973021,18.9914624 17.7975422,19.0949935 18.2530789,19.0949935 C18.4014734,19.0949935 18.5685035,19.0853306 18.753479,19.0680754 C18.9377643,19.0494398 19.1351635,19.0225217 19.3449865,18.9845603 L19.3449865,21.443078 C18.8273312,21.5914725 18.4325327,21.6832701 18.1605911,21.7205413 C17.8900299,21.7571222 17.5207691,21.7757578 17.0521185,21.7757578 C15.9063747,21.7757578 15.0732948,21.3685356 14.5556394,20.5554717 C14.284388,20.1240923 14.0945811,19.513259 13.9827675,18.7250425 C13.3063646,19.613339 12.331102,20.3829199 11.0618111,21.0372362 C9.79252025,21.6894819 8.39416068,22.0159499 6.86535195,22.0159499 C5.02802066,22.0159499 3.52889085,21.4589528 2.36451147,20.3442683 C1.19875169,19.2309643 0.615526689,17.8367459 0.615526689,16.1623035 C0.615526689,14.327733 1.18908879,12.9065966 2.33621298,11.8968237 C3.48195676,10.8870507 4.98660824,10.2658643 6.84671636,10.0305037 L12.1530285,9.36652443 Z" id="Fill-4"></path>
                    <path d="M13.3274159,12.0873898 C13.0402897,12.2074859 12.7221043,12.3151582 12.3756203,12.4083361 C11.717853,12.58779 11.0621562,12.7154783 10.4250951,12.7927815 L8.41866303,13.0502287 C7.28258214,13.2013841 6.42672534,13.4360545 5.87663029,13.7473379 C5.00420852,14.2380751 4.58111157,15.0035148 4.58111157,16.0892106 C4.58111157,16.8981333 4.86409648,17.513798 5.44801168,17.973476 C6.06781765,18.4614524 6.78563303,18.6988836 7.64218004,18.6988836 C8.73132684,18.6988836 9.80321846,18.4414364 10.8267956,17.936895 C12.5102107,17.1183094 13.3274159,15.8193396 13.3274159,13.9640629 L13.3274159,12.0873898 Z M7.64148984,19.6769071 C6.57028842,19.6769071 5.63022635,19.3628628 4.84200985,18.7423667 C4.01928299,18.0928818 3.60032728,17.200444 3.60032728,16.0878302 C3.60032728,14.6370148 4.20425849,13.5630526 5.39555594,12.8942419 C6.0629862,12.5153182 7.01064055,12.2482081 8.28890409,12.0784171 L10.3029284,11.8195895 C10.8965065,11.7491884 11.5066496,11.6284021 12.1188633,11.4620622 C12.7089903,11.3033146 13.1900647,11.1045349 13.5517332,10.8726253 L14.3054394,10.391551 L14.3054394,13.9626825 C14.3054394,16.1989535 13.2804818,17.8312933 11.2561044,18.8141482 C10.1000075,19.3870201 8.8831724,19.6769071 7.64148984,19.6769071 Z M9.24138989,3.38870979 C10.8302466,3.38870979 12.0815921,3.67376532 12.964367,4.2362841 C13.9161626,4.84366635 14.3999977,5.81616815 14.3999977,7.12687142 C14.3999977,7.76531299 14.310961,8.25536003 14.1266757,8.62462082 C13.7960665,9.31758875 13.1521033,9.73171301 12.2154923,9.85249925 L6.90641928,10.5164785 C5.15398346,10.7373447 3.72387435,11.3254012 2.6588848,12.2633926 C1.61253084,13.1841289 1.10453842,14.4596316 1.10453842,16.1616823 C1.10453842,17.7105071 1.6284056,18.9632329 2.70167764,19.9902611 C3.78116154,21.0228109 5.14363035,21.5259719 6.86500685,21.5259719 C8.30753968,21.5259719 9.64240021,21.2146885 10.8378389,20.6010944 C12.0374188,19.983359 12.9636768,19.2531199 13.594526,18.4283224 L14.3040589,17.4965429 L14.4669478,18.6574712 C14.5684083,19.3732159 14.7368188,19.923311 14.970799,20.2953326 C15.3932057,20.9613825 16.0758206,21.28647 17.0517734,21.28647 C17.496957,21.28647 17.8475822,21.2692148 18.0953665,21.2353947 C18.2796518,21.209857 18.533648,21.1546405 18.8552845,21.069745 L18.8552845,19.5492188 C18.8373392,19.5505992 18.8193938,19.55336 18.8028288,19.5547404 C18.6019785,19.5747564 18.4176932,19.5844193 18.2541142,19.5844193 C17.6280963,19.5844193 17.190505,19.4063459 16.9523836,19.0557207 C16.7563648,18.7658337 16.6542141,18.3938121 16.6542141,17.9500089 L16.6542141,6.5408856 C16.6542141,4.83331324 16.0247452,3.61509771 14.7264657,2.8165281 C13.3612361,1.98137751 11.5397795,1.55828056 9.31455184,1.55828056 C7.41096067,1.55828056 5.71926307,2.01588787 4.28432251,2.92005917 C3.00398835,3.72760147 2.30687918,5.10525484 2.16400631,7.1241106 L4.33263701,7.1241106 C4.48586299,6.2102764 4.76125562,5.50902599 5.16571698,4.98999025 C5.98292218,3.92845174 7.35436368,3.38870979 9.24138989,3.38870979 Z M6.86500685,22.5053758 C4.90757952,22.5053758 3.27731036,21.8973033 2.02320406,20.6991038 C0.764956526,19.4940022 0.125134547,17.9679543 0.125134547,16.1630627 C0.125134547,14.1911411 0.760125076,12.6326534 2.01078034,11.5297025 C3.22692524,10.4591913 4.83234695,9.79176103 6.78494283,9.5460473 L12.091255,8.88137786 C12.6827625,8.80545508 13.0603058,8.58044757 13.2459715,8.19600222 C13.3246551,8.03380355 13.4185232,7.72113973 13.4185232,7.12687142 C13.4185232,6.15851087 13.0968867,5.48279812 12.4349781,5.06177179 C11.7137117,4.60140366 10.6383691,4.36811366 9.24000947,4.36811366 C7.67392957,4.36811366 6.56131573,4.77947709 5.93736851,5.59047043 C5.58674331,6.03841483 5.35345331,6.73897504 5.24163976,7.67213503 L5.19056443,8.10351447 L1.14802146,8.10351447 L1.16044519,7.6010437 C1.22739528,4.99137066 2.10119747,3.13678419 3.76321616,2.09181065 C5.35483372,1.08824953 7.22322433,0.5795669 9.31455184,0.5795669 C11.7219942,0.5795669 13.7153123,1.05166855 15.2392896,1.98206772 C16.8281463,2.96147159 17.6343082,4.49580197 17.6343082,6.54157581 L17.6343082,17.9506991 C17.6343082,18.1950324 17.6777912,18.3820786 17.7633769,18.5063158 C17.7799419,18.5332339 17.9090106,18.6063959 18.2541142,18.6063959 C18.3852535,18.6063959 18.5370991,18.5981134 18.7048194,18.5808582 C18.8787516,18.563603 19.0651075,18.5380654 19.2597459,18.5028648 L19.8353786,18.4020946 L19.8353786,21.8137882 L19.4785416,21.9145585 C18.9339682,22.0712355 18.5239851,22.1664841 18.2285765,22.2072063 C17.9331679,22.2465481 17.5473421,22.2665641 17.0524636,22.2665641 C15.7327876,22.2665641 14.754074,21.7799681 14.1439309,20.81989 C13.961026,20.5313835 13.8140119,20.1876603 13.6994375,19.7804381 C13.0540939,20.4126678 12.2458614,20.9786377 11.2850931,21.4735161 C9.95161299,22.1575114 8.4649069,22.5053758 6.86500685,22.5053758 Z" id="Fill-6"></path>
                </g>
            </g>
        </g>
    </g>
</svg>
